style/images/mosaik-sim-setup-delete-alt.svg

<svg height="24" viewBox="0 0 6.3499997 6.3500001" width="24" xmlns="http://www.w3.org/2000/svg"><path d="m3.1747901.02170414c-.61908 0-1.6803698.21071369-2.43551021 1.23041606-.37769032.5100129-.51703419 1.0192456-.55862219 1.540991-.04158827.5217453.003799 1.058573-.0139528 1.6970541v.00413.00362c0 .1110118.024961.2792637.13074147.4221964.10578015.1429324.26411581.2690516.5276162.4392496l.42943123.2950738v.6738607h.5038452v-.9394775l-.6578409-.449585-.00207-.00155c-.24125808-.1558334-.35602533-.2622822-.39635524-.3167768s-.03358991-.0478388-.03358965-.1229897c.01809618-.6651678-.02286714-1.2020592.01395254-1.6639812.03694906-.4635484.140403-.8482037.46095365-1.2810588.6413418-.86603403 1.5228527-1.02732747 2.0314007-1.02732744.508526 0 1.3895956.1613648 2.0308837 1.02732744.3205509.4328551.4240048.8175104.4609536 1.2810588.036821.461922-.00412.9988134.013953 1.6639812 0 .075151.00671.068495-.03359.1229897-.04033.054495-.1550974.1609434-.3963583.3167766l-.00207.00155-.6578409.449585v.9394777h.5038482v-.6738607l.4294312-.2950723.0062-.00413c.2586921-.1675843.4167153-.293645.5214165-.4351196.1057809-.1429327.1328084-.3111846.1328084-.4221964v-.00362-.00413c-.017753-.6384749.026085-1.1753103-.015503-1.6970556-.041588-.5217454-.1809322-1.0309781-.5586222-1.540991-.7551931-1.01977375-1.8164072-1.23041606-2.4355102-1.23041606zm.9172567 2.65668526-.3555339.3550171.3782714.3782716-.3782714.3777547.3555339.3555338.3777546-.3782713.3782714.3782713.3555338-.3555338-.3782713-.3777547.3782713-.3782716-.3555338-.3550171-.3782714.3777549zm-2.5522991.0015505-.3555339.3550171.3777549.3772379-.3777549.3767211.3555339.3555339.3782716-.3772379.3777546.3772379.3555338-.3555339-.3777546-.3767211.3777546-.3772379-.3555338-.3550171-.3777546.3772378zm1.646411 1.4433227c-.1151289 0-.1900632.074128-.2340941.1364257-.04403.062298-.071141.1293003-.094051.19327-.04582.127939-.068213.2501138-.068213.2501138l-.0330728.1875856h.1891355.6702433l-.0330729-.1875856s-.022909-.1221748-.068729-.2501138c-.0229105-.0639691-.051572-.1309722-.0956019-.19327-.044038-.0622979-.1174144-.1364257-.2325441-.1364257zm-1.0976073 1.4448731v.7601601h.5038453v-.7601601zm.8340577 0v.7601601h.5038452v-.7601601zm.8340574 0v.7601601h.5038453v-.7601601z" fill="#616161"/></svg>

<?xml version="1.0" encoding="UTF-8" standalone="no"?>
<svg
   xmlns:dc="http://purl.org/dc/elements/1.1/"
   xmlns:cc="http://creativecommons.org/ns#"
   xmlns:rdf="http://www.w3.org/1999/02/22-rdf-syntax-ns#"
   xmlns:svg="http://www.w3.org/2000/svg"
   xmlns="http://www.w3.org/2000/svg"
   xmlns:sodipodi="http://sodipodi.sourceforge.net/DTD/sodipodi-0.dtd"
   xmlns:inkscape="http://www.inkscape.org/namespaces/inkscape"
   height="24"
   viewBox="0 0 6.3499997 6.3500001"
   width="24"
   version="1.1"
   id="svg4"
   sodipodi:docname="mosaik-sim-setup-delete.svg"
   inkscape:version="0.92.4 (5da689c313, 2019-01-14)">
  <metadata
     id="metadata10">
    <rdf:RDF>
      <cc:Work
         rdf:about="">
        <dc:format>image/svg+xml</dc:format>
        <dc:type
           rdf:resource="http://purl.org/dc/dcmitype/StillImage" />
      </cc:Work>
    </rdf:RDF>
  </metadata>
  <defs
     id="defs8" />
  <sodipodi:namedview
     pagecolor="#ffffff"
     bordercolor="#666666"
     borderopacity="1"
     objecttolerance="10"
     gridtolerance="10"
     guidetolerance="10"
     inkscape:pageopacity="0"
     inkscape:pageshadow="2"
     inkscape:window-width="1920"
     inkscape:window-height="1017"
     id="namedview6"
     showgrid="false"
     inkscape:zoom="22.627417"
     inkscape:cx="15.801696"
     inkscape:cy="5.503196"
     inkscape:window-x="-8"
     inkscape:window-y="-8"
     inkscape:window-maximized="1"
     inkscape:current-layer="svg4" />
  <path
     style="color:#000000;font-style:normal;font-variant:normal;font-weight:normal;font-stretch:normal;font-size:medium;line-height:normal;font-family:sans-serif;font-variant-ligatures:normal;font-variant-position:normal;font-variant-caps:normal;font-variant-numeric:normal;font-variant-alternates:normal;font-feature-settings:normal;text-indent:0;text-align:start;text-decoration:none;text-decoration-line:none;text-decoration-style:solid;text-decoration-color:#000000;letter-spacing:normal;word-spacing:normal;text-transform:none;writing-mode:lr-tb;direction:ltr;text-orientation:mixed;dominant-baseline:auto;baseline-shift:baseline;text-anchor:start;white-space:normal;shape-padding:0;clip-rule:nonzero;display:inline;overflow:visible;visibility:visible;opacity:1;isolation:auto;mix-blend-mode:normal;color-interpolation:sRGB;color-interpolation-filters:linearRGB;solid-color:#000000;solid-opacity:1;vector-effect:none;fill:#616161;fill-opacity:1;fill-rule:nonzero;stroke:none;stroke-width:0.50270832;stroke-linecap:butt;stroke-linejoin:miter;stroke-miterlimit:4;stroke-dasharray:none;stroke-dashoffset:0;stroke-opacity:1;color-rendering:auto;image-rendering:auto;shape-rendering:auto;text-rendering:auto;enable-background:accumulate"
     d="m 3.1747901,0.02170414 c -0.61908,0 -1.6803698,0.21071369 -2.43551021,1.23041606 C 0.36158957,1.7621331 0.2222457,2.2713658 0.1806577,2.7931112 0.13906943,3.3148565 0.1844567,3.8516842 0.1667049,4.4901653 v 0.00413 0.00362 c 0,0.1110118 0.024961,0.2792637 0.13074147,0.4221964 0.10578015,0.1429324 0.26411581,0.2690516 0.5276162,0.4392496 L 1.2544938,5.6544351 V 6.3282958 H 1.758339 V 5.3888183 l -0.6578409,-0.449585 -0.00207,-0.00155 C 0.85717002,4.7818499 0.74240277,4.6754011 0.70207286,4.6209065 0.66174295,4.5664119 0.66848295,4.5730677 0.66848321,4.4979168 0.68657939,3.832749 0.64561607,3.2958576 0.68243575,2.8339356 0.71938481,2.3703872 0.82283875,1.9857319 1.1433894,1.5528768 1.7847312,0.68684277 2.6662421,0.52554933 3.1747901,0.52554936 c 0.508526,0 1.3895956,0.1613648 2.0308837,1.02732744 0.3205509,0.4328551 0.4240048,0.8175104 0.4609536,1.2810588 0.036821,0.461922 -0.00412,0.9988134 0.013953,1.6639812 0,0.075151 0.00671,0.068495 -0.03359,0.1229897 -0.04033,0.054495 -0.1550974,0.1609434 -0.3963583,0.3167766 l -0.00207,0.00155 -0.6578409,0.449585 V 6.3282958 H 5.0945694 V 5.6544351 l 0.4294312,-0.2950723 0.0062,-0.00413 C 5.7888927,5.1876485 5.9469159,5.0615878 6.0516171,4.9201132 6.157398,4.7771805 6.1844255,4.6089286 6.1844255,4.4979168 v -0.00362 -0.00413 C 6.1666725,3.8516919 6.2105105,3.3148565 6.1689225,2.7931112 6.1273345,2.2713658 5.9879903,1.7621331 5.6103003,1.2521202 4.8551072,0.23234645 3.7938931,0.02170414 3.1747901,0.02170414 Z M 4.0920468,2.6783894 3.7365129,3.0334065 4.1147843,3.4116781 3.7365129,3.7894328 4.0920468,4.1449666 4.4698014,3.7666953 4.8480728,4.1449666 5.2036066,3.7894328 4.8253353,3.4116781 5.2036066,3.0334065 4.8480728,2.6783894 4.4698014,3.0561443 Z M 1.5397477,2.6799399 1.1842138,3.034957 1.5619687,3.4121949 1.1842138,3.788916 1.5397477,4.1444499 1.9180193,3.767212 2.2957739,4.1444499 2.6513077,3.788916 2.2735531,3.4121949 2.6513077,3.034957 2.2957739,2.6799399 1.9180193,3.0571777 Z m 1.646411,1.4433227 c -0.1151289,0 -0.1900632,0.074128 -0.2340941,0.1364257 -0.04403,0.062298 -0.071141,0.1293003 -0.094051,0.19327 -0.04582,0.127939 -0.068213,0.2501138 -0.068213,0.2501138 L 2.7567278,4.8906577 H 2.9458633 3.6161066 L 3.5830337,4.7030721 c 0,0 -0.022909,-0.1221748 -0.068729,-0.2501138 C 3.4913942,4.3889892 3.4627327,4.3219861 3.4187028,4.2596883 3.3746648,4.1973904 3.3012884,4.1232626 3.1861587,4.1232626 Z M 2.0885514,5.5681357 V 6.3282958 H 2.5923967 V 5.5681357 Z m 0.8340577,0 V 6.3282958 H 3.4264543 V 5.5681357 Z m 0.8340574,0 V 6.3282958 H 4.2605118 V 5.5681357 Z"
     id="path828"
     inkscape:connector-curvature="0" />
  <g
     id="g848"
     transform="translate(2.5522888,-0.18511444)"
     style="stroke-width:0.50270832;stroke-miterlimit:4;stroke-dasharray:none" />
</svg>
